X: 9644
T: Day Of The Sun's Rebirth
R: reel
M: 4/4
K: Edorian
|:e2BA GEEE|deAB GEEE|eeBA GEGA|ded(c c)AAA|
e2BA GEEE|deAB GEEE|eeBA GEGA|1 ded(c c)A (3Bcd:|2 ded(c c)AAA||
|:EEee d2EE|ddc2 EEG2|EEED EBA2|GABd deA2|
EEee d2EE|ddc2 ddef|g2ed eedB|deBA AGFG:|
|:Eeee d2Ed|ddc2 EGGG|EEED EBA2|GABd deA2|
Eeee d2Ed|ddc2 ddef|g2ed eedB|deBA AGFG:|
|:e2BA GEEE|eeBe ddBd|eeBA GEEE|cAAA dBBB|
e2BA GEEE|eeBe dA (3Bcd|eBAB GEGA|cA (3Bcd deBd:|
EBed GAge|ABag aAAG|ABag GAge|Bde(g g)EED|
EBed GAge|ABag aAAG|ABae gaag|fdfg eEEE||

